packages/tokens/icons/accessPrivate/size16Px.svg

<svg viewBox="0 0 16 16" fill="none" xmlns="http://www.w3.org/2000/svg" width="1em" height="1em"><path d="M8.00005 7.5C8.82847 7.5 9.50005 6.82843 9.50005 6C9.50005 5.17157 8.82847 4.5 8.00005 4.5C7.17162 4.5 6.50005 5.17157 6.50005 6C6.50005 6.82843 7.17162 7.5 8.00005 7.5Z" stroke="currentColor" stroke-linecap="round" stroke-linejoin="round"/><path d="M5.5 12.5L5.5 11.5C5.5 10.3954 6.39543 9.5 7.5 9.5L8.50005 9.5C9.60462 9.5 10.5 10.3954 10.5 11.5V12.5" stroke="currentColor" stroke-linecap="round"/><path d="M3.00202 3.49037C5.51644 3.39162 6.63474 2.55106 7.3118 1.81228C7.70164 1.3869 8.29845 1.3869 8.68829 1.81228C9.36535 2.55106 10.4837 3.39162 12.9981 3.49037C13.274 3.50121 13.5006 3.72453 13.4953 4.00063C13.3905 9.47423 11.5529 12.7787 8.38994 14.3216C8.14397 14.4416 7.85613 14.4416 7.61016 14.3216C4.4472 12.7787 2.60957 9.47423 2.50479 4.00063C2.4995 3.72453 2.72609 3.50121 3.00202 3.49037Z" stroke="currentColor" stroke-linecap="round"/></svg>

<svg xmlns="http://www.w3.org/2000/svg" fill="none" viewBox="0 0 16 16" width="1em" height="1em"><path stroke="currentColor" stroke-linecap="round" stroke-linejoin="round" d="M8 7.5a1.5 1.5 0 1 0 0-3 1.5 1.5 0 0 0 0 3Z"/><path stroke="currentColor" stroke-linecap="round" d="M5.5 12.5v-1a2 2 0 0 1 2-2h1a2 2 0 0 1 2 2v1"/><path stroke="currentColor" stroke-linecap="round" d="M3.002 3.49c2.514-.098 3.633-.939 4.31-1.678.39-.425.986-.425 1.376 0 .677.74 1.796 1.58 4.31 1.678a.51.51 0 0 1 .497.51c-.104 5.474-1.942 8.779-5.105 10.322a.89.89 0 0 1-.78 0C4.447 12.779 2.61 9.474 2.505 4a.51.51 0 0 1 .497-.51Z"/></svg>
